X: 1
T: Tom McVicars Reel
R: reel
Z: 2006 John Chambers <jc:trillian.mit.edu>
M: C|
L: 1/8
K: Edor
|: D2 \
| "Em"E2EF GFGA | "Em"B2e2 B3A | "D"F2D2     DEFG |  "D"A2AB AGFD \
| "Em"E2EF GFGA | "Em"B2e2 B3A | "D"F2d2 "B7"B2AF | "Em"E6 :|
|: B2 \
| "Em"e2e2 BcdB | "Em"e2e2 "A7"B3c | "D"d2A2 "A7"ABAG |  "D"FGAF D4 \
| "Em"E2EF GFGA | "Em"B2e2     B3A | "D"F2d2 "B7"B2AF | "Em"E6 :|
